modules/open-iconic/icons/inbox.svg

<svg xmlns="http://www.w3.org/2000/svg" width="8" height="8" viewBox="0 0 8 8">
  <path d="M.19 0c-.11 0-.19.08-.19.19v7.63c0 .11.08.19.19.19h7.63c.11 0 .19-.08.19-.19v-7.63c0-.11-.08-.19-.19-.19h-7.63zm.81 2h6v3h-1l-1 1h-2l-1-1h-1v-3z" />
</svg>

<svg xmlns="http://www.w3.org/2000/svg" width="8" height="8"><path d="M.19 0C.08 0 0 .08 0 .19v7.63c0 .11.08.19.19.19h7.63c.11 0 .19-.08.19-.19V.19c0-.11-.08-.19-.19-.19H.19zM1 2h6v3H6L5 6H3L2 5H1V2z"/></svg>
